X:200
T:Laird o' Cockpen, The
R:Jig
C:Traditional
S:8 X 32 Jig 1,2,3,4  2,3,4,1
M:6/8
L:1/8
K:Em %Transposed from Gm
B |: \
"Em" E>FE G2G | "D" F>DD     D2F  | "Em" E>FE "C"  e2e | "G"  d<BB B2c | !
"G"  dGB  dcB | "D" A>BG "B" F>GA | "Em" B>cB "B7" B2A | "Em" G>EE E2 B :|!
|: \
"Em" e2e e>fg | "D" f<dd      d2f | "Em" eGB  "C" e>fe | "G"  d<BB B2c | !
"G"  dGB dcB  | "D" A>BG "B" F>GA | "Em" B>cB "B7" B2A | "Em" G>EE E2 :|
